X: 10032
T: BLUE BIRD
C:
%R: reel
B: Elias Howe "The Musician's Companion" Part 1 1842 p.3 #2
S: http://imslp.org/wiki/The_Musician's_Companion_(Howe,_Elias)
Z: 2015 John Chambers <jc:trillian.mit.edu>
N: The dot in bar 11 may be a typo or printing accident.
M: C|
L: 1/8
K: Am
% - - - - - - - - - - - - - - - - - - - - - - - - -
G2 |\
ABcd e2e2 | cBAB c2c2 | EFGA G2G2 | cGcA BGBG |\
ABcd e2e2 | dcBA a2g2 | a2e2 f2ed | c2B2 A2 :|
|: F2 |\
EFGA GAGF | EFGA GAGF | .EGAG BGAG | EGAG BGAG |\
EFGA GAGF | E2 e4 e2 | a2a2 ^g2g2 | a2a2 a2 :|
% - - - - - - - - - - - - - - - - - - - - - - - - -


